assets/kick/mono.svg

<svg viewBox="0 0 24 24" xmlns="http://www.w3.org/2000/svg"><path d="m1.333 0h8v5.333h2.667v-2.666h2.667v-2.667h8v8h-2.667v2.667h-2.667v2.666h2.667v2.667h2.667v8h-8v-2.667h-2.667v-2.666h-2.667v5.333h-8z"/></svg>

<svg xmlns="http://www.w3.org/2000/svg" viewBox="0 0 24 24"><path d="M1.333 0h8v5.333H12V2.667h2.667V0h8v8H20v2.667h-2.667v2.666H20V16h2.667v8h-8v-2.667H12v-2.666H9.333V24h-8z"/></svg>
